X: 3037
T: Bay Tree, The
R: waltz
M: 3/4
K: Gmajor
GA|:B3 BAB|d3 dBA|AGF GAd|BAA AGA|
B3 BAB|d3dBA|AGFGAB|1 D3DGA:|2 D4 D2||
|:B2G DGB|c2E Gce|d2F Adg|e3 d2c|
B2G DGB|c2E Gce|d2F Adg|e2d d2c:|

